X: 3
T: Girl With The Blue Dress On, The
Z: geoffwright
S: https://thesession.org/tunes/5762#setting17709
R: polka
M: 2/4
L: 1/8
K: Gmaj
|:GB d2d2d2|dedc B4|GA B2GA B2|B2A2A4|AB c2c2c2|cdcB A4|FG A2FG A2|A2G2G4:||:GB d2g2d2|d2c2cB c2|FA c2f2e2|e2d2d^c d2|GB d2g2d2|d2c2cB c2|FA c2f2e2|ddef g4:|
